!!!COM: Palestrina, Giovanni Perluigi da
!!!OPR: Missa O sacrum convivium
!!!OMD: Credo
!!!OTL: Crucifixus
**kern	**kern	**kern	**kern
*Itenor	*Itenor	*Icalto	*Icant
!Tenor 2	!Tenor 1	!Altus	!Cantus
*clefGv2	*clefGv2	*clefG2	*clefG2
*k[b-]	*k[b-]	*k[b-]	*k[b-]
*F:ion	*F:ion	*F:ion	*F:ion
*M4/2	*M4/2	*M4/2	*M4/2
=82	=82	=82	=82
0c	0e	0g	0cc
=83	=83	=83	=83
1A	1c	1f	1cc
1G	1d	1g	1b
=84	=84	=84	=84
2F	2f	1a	1cc
1f	1a	.	.
.	.	1cc	1r
2e	2g	.	.
=85	=85	=85	=85
2d	2f	2b-	1r
2c	2e	2a	.
1B-	1d	2g	2r
.	.	4f	[2ff
.	.	4g	.
=86	=86	=86	=86
1A	1c	4a	2ff]
.	.	4b-	.
.	.	4cc	2ee
.	.	4a	.
2r	1r	2b-	2dd
2F	.	[2a	2cc
=87	=87	=87	=87
1G	2r	4a]	1b-
.	.	4g	.
.	2e	2g	.
1d	2.f	2.a	[1a
.	4e	4g	.
=88	=88	=88	=88
2r	2d	2f	0a]
2e	2c	2e	.
2.f	2.d	4d	.
.	.	4e	.
.	.	4f	.
4e	4e	4g	.
=89	=89	=89	=89
2d	2f	0a	2r
2c	2e	.	2ee
2.d	2r	.	2.ff
.	2d	.	.
4c	.	.	4ee
=90	=90	=90	=90
2B-	2d	2r	2dd
2A	2e	2a	2cc
1G	2g	2.b-	2.dd
.	4G	.	.
.	4A	4a	4cc
=91	=91	=91	=91
0r	4B-	2g	2b-
.	4c	.	.
.	2d	2f	2a
.	1B-	2g	1b-
.	.	[2f	.
=92	=92	=92	=92
2r	1c	4f]	0g
.	.	4e	.
1c	.	4e	.
.	.	4c	.
.	1G	2d	.
2B	.	[2g	.
=93	=93	=93	=93
2c	2r	2g]	1r
2A	2c	2f	.
2G	2B	2g	2r
[2F	2c	[2a	[2cc
=94	=94	=94	=94
2F]	1d	2a]	2cc]
2G	.	4g	2b
.	.	4f	.
2.A	4c	4e	1cc
.	4B-	4d	.
.	4A	2e	.
4B-	4G	.	.
=95	=95	=95	=95
2c	1F	1.f	1a
1d	.	.	.
.	1G	.	1g
[2c	.	2e	.
=96	=96	=96	=96
2c]	1G	1d	1g
2B	.	.	.
1c	2r	1e	1g
.	2c	.	.
=97	=97	=97	=97
0r	2.f	2.a	2r
.	.	.	2cc
.	4f	4a	.
.	2f	2a	2.ff
.	2d	2f	.
.	.	.	4ff
=98	=98	=98	=98
0r	2f	2a	2ff
.	2g	2b-	2dd
.	2.a	2.cc	2ff
.	.	.	2ee
.	4g	4b-	.
=99	=99	=99	=99
2r	2f	2a	2dd
2c	2e	2g	1cc
2d	1d	2f	.
[2f	.	2f	2b
=100	=100	=100	=100
2f]	1c	1g	1cc
2e	.	.	.
2.d	1r	2b-	1r
.	.	2a	.
4c	.	.	.
=101	=101	=101	=101
2B-	0r	4g	2r
.	.	4f	.
2A	.	1f	2f
1G	.	.	2g
.	.	2e	[2b-
=102	=102	=102	=102
1F	2r	0f	2b-]
.	2c	.	2a
1r	2d	.	4f
.	.	.	4g
.	[2f	.	4a
.	.	.	4f
=103	=103	=103	=103
0r	2f]	1c	1g
.	2e	.	.
.	2.d	2r	2f
.	.	2f	2a
.	4c	.	.
=104	=104	=104	=104
0r	2B-	2g	2b-
.	2A	2a	2cc
.	1G	2.b-	2dd
.	.	.	2ee
.	.	4g	.
=105	=105	=105	=105
2r	1F	4a	2.ff
.	.	4b-	.
2A	.	2cc	.
.	.	.	4ee
2B-	1r	2b-	2dd
2c	.	[2a	2cc
=106	=106	=106	=106
2d	1r	2a]	1b-
2e	.	2g	.
2.f	2r	1a	[1a
.	2f	.	.
4e	.	.	.
=107	=107	=107	=107
2d	2f	2r	1a]
2c	2e	2a	.
1B-	2f	2a	2r
.	2d	2g	2dd
=108	=108	=108	=108
1A	2e	2.a	2dd
.	4f	.	2cc
.	4e	4g	.
1r	4d	2f	2.dd
.	4c	.	.
.	4B-	[2g	.
.	4A	.	4cc
=109	=109	=109	=109
0r	2G	4g]	2b-
.	.	4f	.
.	2.A	4e	2.cc
.	.	4d	.
.	.	2e	.
.	4G	.	4b-
.	4F	[2f	4a
.	4E	.	4g
=110	=110	=110	=110
0r	4F	4f]	4a
.	4G	4e	4b-
.	2A	4e	1cc
.	.	8d	.
.	.	8c	.
.	1G	1d	.
.	.	.	2b
=111	=111	=111	=111
1c	2r	2e	1cc
.	2c	2g	.
2c	2e	2a	1r
2d	2f	2b-	.
=112	=112	=112	=112
2c	2.e	2.a	2r
2A	.	.	2cc
.	4e	4a	.
2c	2e	2a	2cc
2B-	2d	2g	2dd
=113	=113	=113	=113
1A	2e	1a	2cc
.	2f	.	2a
1r	2f	1r	2cc
.	2g	.	2b-
=114	=114	=114	=114
0r	2f	2r	2.a
.	2d	2f	.
.	.	.	4g
.	2f	2f	4a
.	.	.	4b-
.	2e	2g	2cc
=115	=115	=115	=115
1B-	1d	2f	1dd
.	.	2d	.
2B-	1r	2f	1r
2c	.	2e	.
=116	=116	=116	=116
2B-	2r	1d	1b-
2G	2g	.	.
2B-	2g	1r	2b-
2A	2f	.	2cc
=117	=117	=117	=117
4G	2g	0r	2b-
4A	.	.	.
4B-	2d	.	2g
4c	.	.	.
4d	1f	.	2b-
4e	.	.	.
[2f	.	.	2a
=118	=118	=118	=118
4f]	1c	2r	1g
4e	.	.	.
4e	.	2g	.
8d	.	.	.
8e	.	.	.
1f	1F	4a	2r
.	.	4b-	.
.	.	4cc	4f
.	.	4b-	4g
=119	=119	=119	=119
1F	2r	4a	4a
.	.	4g	4b-
.	1f	4f	4cc
.	.	4e	4a
1B-	.	4d	4b-
.	.	4e	4cc
.	[2d	2f	2dd
=120	=120	=120	=120
1G	2d]	1g	1b-
.	1e	.	.
1A	.	1c	2a
.	[2f	.	[2a
=121	=121	=121	=121
1.B-	2f]	1.d	2a]
.	2e	.	4g
.	.	.	4f
.	2d	.	2g
2B-	2d	2d	2g
=122	=122	=122	=122
1A	1c#	1e	1a
2r	2r	2r	2r
[2A	[2c#	[2e	[2a
=123	=123	=123	=123
2A]	2c#]	2e]	2a]
2d	2d	2f	2b-
1c	1e	1g	1cc
=124	=124	=124	=124
1F	1f	2f	2a
.	.	2c	2cc
1r	1r	4d	2b-
.	.	4e	.
.	.	4f	2a
.	.	4d	.
=125	=125	=125	=125
1r	1r	2e	2g
.	.	2f	1cc
2r	2r	1d	.
2G	2g	.	2b
=126	=126	=126	=126
4A	2f	1c	1cc
4B-	.	.	.
4c	2e	.	.
4A	.	.	.
2B-	2d	1r	1r
2c	[2f	.	.
=127	=127	=127	=127
2.A	4f]	2r	0r
.	4f	.	.
.	1f	2f	.
4B-	.	.	.
1G	.	4g	.
.	.	4a	.
.	2e	4b-	.
.	.	4g	.
=128	=128	=128	=128
1F	1f	1a	2r
.	.	.	2cc
1r	1r	1b-	4dd
.	.	.	4ee
.	.	.	4ff
.	.	.	4dd
=129	=129	=129	=129
0r	2r	1g	1ee
.	2c	.	.
.	4d	2f	2ff
.	4e	.	.
.	4f	2a	[2dd
.	4d	.	.
=130	=130	=130	=130
1r	2e	2g	4dd]
.	.	.	4cc
.	2f	1a	1cc
2r	1d	.	.
2G	.	4g	2b
.	.	4f	.
=131	=131	=131	=131
4A	2c	2.e	1cc
4B-	.	.	.
4c	2c	.	.
4A	.	4f	.
2B-	2d	1g	2r
2c	2e	.	2cc
=132	=132	=132	=132
0F	0f	0a	2cc
.	.	.	2cc
.	.	.	1cc
=133	=133	=133	=133
0c	0e	0g	0cc
*-	*-	*-	*-
!!!CDT: 1525/^1526/-1594/2/2
!!!OCY: Italia
!!!AGN: Mass (Parody)
!!!AST: renaissance, vocal
!!!ASW: Motet (Morales)
!!!PWK: Masses, Book 8
!!!RNB: Cadence finals: C
!!!YOR: Le Opere Complete, v. 24, p. 227
!!!YOO: Rome, Italy: Fratelli Scalera
!!!END: 1992//
!!!EED: John Miller
!!!YEC: Copyright 2000, John Miller
!!!YEN: United States of America
!!!YEM: Rights to all derivative electronic formats reserved.
!!!YEM: Refer to licensing agreement for further details.
!!!YEM: This file must be accompanied by the licensing agreement.
!!!YEM: A copy of the licensing agreement may be found at http://www.music-cog.ohio-state.edu/HumdrumDatabases/Palestrina/license.txt
!!!EMD: converted to Humdrum by Bret Aarden
